!!!!SEGMENT: pl-sa--552-a-ix-32--040_anonim--valtz.krn
!!!cenid: 18xx:551
!!!COM: Anonim
!!!COM-rismID:
!!!CDT:
!!!CNT:
!!!OTL: Valtz
!!!PDT:
!!!AGN: Secular; Waltz
!!!SMS-siglum: PL-SA
!!!SMS-shelfmark: 552/A IX 32
!!!SMS-shelfwork: 040 W
!!!SMS-variant:
!!!SMS-altvar:
!!!NIFC-rismSourceID: 1001069585
!!!NIFC-islandoraID:
!!!URL-pdf-islandora:
!!!URL-scan: https://bc.bdsandomierz.pl/dlibra/publication/1308/edition/1276/content @EN{Scan on Cyfrowa Biblioteka Diecezjalna w Sandomierzu} @PL{Skany w portalu Cyfrowa Biblioteka Diecezjalna w Sandomierzu}
!!!ONB-nifc: Str. 22, s. 1-2
!!!AIN: 2 empty
!!!key:
**kern	**kern
*part2	*part1
*staff2	*staff1
*Iempty	*Iempty
*I"	*I"
*I'keyb	*I'keyb
*clefF4	*clefG2
*k[f#c#]	*k[f#c#]
*D:	*D:
*M3/8	*M3/8
*>[A,A,B,B,C,C]	*>[A,A,B,B,C,C]
*>A	*>A
!LO:TX:a:t=P:global:problem=omyłkowo wpisany klucz F3 zamiast F4	!LO:TX:a:i:t=Valtʒ
8r	16dd\LL
.	16ff#\JJ
=1	=1
*^	*
8r	8D\L	8aa\L
8ryy	8A 8F#\	16ff#\L
.	.	16aa\J
8ryy	8AJ 8F#\	8ddd\J
=2	=2	=2
*rep	*rep	*
8r	8D\L	16dd\LL
.	.	16ff#\J
8ryy	8A 8F#\	8aa\
8ryy	8AJ 8F#\	16a\L
.	.	16dd\JJ
*Xrep	*Xrep	*
=3	=3	=3
*rep	*rep	*
8r	8D\L	8ff#\L
8ryy	8A 8F#\	16f#\L
.	.	16a\
8ryy	8AJ 8F#\	16dd\
.	.	16ff#\JJ
*Xrep	*Xrep	*
=4	=4	=4
!LO:TX:a:t=P:problem=jednocześnie znak powtórzenia taktu	!	!
8r	8AA\	16aa\LL
*	*rep	*
.	.	16gg\J
8G/L	8ryy	8ee\
8A/J	8ryy	16dd\L
.	.	16ff#\JJ
*	*Xrep	*
*v	*v	*
=5	=5
8D\L	8aa\L
8A 8F#\	16ff#\L
.	16aa\J
8AJ 8F#\	8ddd\J
=6	=6
*rep	*
8D\L	16dd\LL
.	16ff#\J
8A 8F#\	8aa\
8AJ 8F#\	16a\L
.	16dd\JJ
*Xrep	*
=7	=7
*^	*
!LO:SIC:v:s=4A	!	!
8r	4GG\	8ff#\L
8AL 8G/	.	16ee\L
.	.	16dd\
8AJ 8G/	8ryy	16cc#\
.	.	16ee\JJ
=	=	=
4F#/	4D\	4dd\
*v	*v	*
=8:|!|:	=8:|!|:
*>B	*>B
8r	16a\LL
.	16cc#\JJ
=9	=9
*clefG2	*
8A/L	8ee\L
8g 8e/	16cc#\L
.	16ee\J
8gJ 8e/	8aa\J
=10	=10
*rep	*
8A/L	16ee\LL
.	16aa\JJ
8g 8e/	8ccc#\L
8gJ 8e/	16aa\L
.	16ccc#\JJ
*Xrep	*
=11	=11
8d/L	8ddd\L
8a 8f#/	16ff#\L
.	16aa\J
8aJ 8f#/	8ddd\J
!!LO:LB:g=original
=12	=12
*rep	*
8d/L	16dd\LL
.	16ff#\J
8a 8f#/	8aa\
8aJ 8f#/	16ff#\L
.	16dd\JJ
*Xrep	*
=13	=13
8A/L	8ee\L
8g 8e/	16cc#\L
.	16ee\J
8gJ 8e/	8aa\J
=14	=14
*rep	*
8A/L	16ee\LL
.	16aa\J
8g 8e/	8ccc#\
8gJ 8e/	16aa\L
.	16ccc#\JJ
*Xrep	*
=15	=15
*rep	*
8A/L	8ddd\L
8g 8e/	16gg\L
.	16aa\
8gJ 8e/	16gg\
.	16ee\JJ
*Xrep	*
=	=
4f# 4d/	4dd\
=16:|!|:	=16:|!|:
*>C	*>C
*k[cn]	*k[cn]
*G:	*G:
8r	16b\LL
.	16cc\JJ
*clefF4	*
=17	=17
*^	*
8r	8G\L	4dd\
8ryy	8d 8B\	.
8ryy	8dJ 8B\	8b\
=18	=18	=18
*rep	*rep	*
.	.	8qee/
8r	8G\L	16dd\LL
.	.	16cc#X\
8ryy	8d 8B\	16dd\
.	.	16ee\
8ryy	8dJ 8B\	16ff#y\
.	.	16gg\JJ
*Xrep	*Xrep	*
=19	=19	=19
8r	4D\	16aa\LL
.	.	16gg\J
8cL 8A/	.	8ff#y\
8cJ 8A/	8ryy	8ddd\J
=20	=20	=20
8r	4G\	16bb\Lk
.	.	16gg\
4d 4B\	.	8gg\J
.	8r	16b\LL
.	.	16cc\JJ
=21	=21	=21
8r	4G\	4dd\
8dL 8B\	.	.
8dJ 8B\	8ryy	8b\
=22	=22	=22
*rep	*rep	*
8r	4G\	16dd\LL
.	.	16cc#X\
8dL 8B\	.	16dd\
.	.	16ee\
8dJ 8B\	8ryy	16ff#y\
.	.	16gg\JJ
*Xrep	*Xrep	*
=23	=23	=23
8r	4D\	16aa\LL
.	.	16gg\J
8cL 8A\	.	8ff#y\
8cJ 8A\	8ryy	8ddd\J
*v	*v	*
=24	=24
4B 4G\	4gg\
8ryy	8ryy
==:|!	==:|!
*-	*-
!!!system-decoration: {s1,s2}
!!!ENC: Marta Lawrence
!!!END: 2020-12-13
!!!ENC: Andrzej Borzym
!!!END: 2020-06-18
